media/service-03.svg

<svg width="100" height="100" viewBox="0 0 100 100" fill="none" xmlns="http://www.w3.org/2000/svg">
<circle cx="50" cy="50" r="50" fill="#0F75BC" fill-opacity="0.12"/>
<path d="M49.782 28.2167C53.6126 28.2167 57.4494 29.3041 60.8775 31.3615C63.0519 32.6697 65.0057 34.3139 66.6655 36.2338L60.9385 36.0449C60.2659 36.0224 59.7026 36.5499 59.6805 37.2229C59.6584 37.8955 60.1855 38.4592 60.8585 38.4809L68.7823 38.7425C69.2374 38.9299 69.7607 38.8252 70.1088 38.4767C70.4565 38.1282 70.5605 37.6049 70.3724 37.1498L70.1115 29.2279C70.0962 28.5549 69.5383 28.0217 68.8653 28.0366C68.1927 28.0518 67.6587 28.6098 67.674 29.2824C67.674 29.2915 67.674 29.2999 67.6747 29.3087L67.8256 33.879C66.149 32.0874 64.2329 30.5362 62.1317 29.2706C58.325 26.9866 54.0544 25.7792 49.782 25.7792C42.957 25.7792 36.6644 28.5934 32.0659 33.703C27.9922 38.2295 25.5601 44.3221 25.5601 50.0011C25.5601 50.6741 26.1054 51.2199 26.7788 51.2199C27.4522 51.2199 27.9976 50.6741 27.9976 50.0011C27.9976 44.9079 30.1955 39.4247 33.8776 35.3339C38.0084 30.7449 43.6562 28.2167 49.782 28.2167Z" fill="#0F75BC"/>
<path d="M73.0914 48.7824C72.4181 48.7824 71.8727 49.3278 71.8727 50.0012C71.8727 55.094 69.6747 60.5776 65.9926 64.6688C61.8618 69.2578 56.214 71.7852 50.0883 71.7852C46.2576 71.7852 42.4208 70.6986 38.9927 68.6412C36.8183 67.3325 34.8645 65.6884 33.2047 63.7688L38.9317 63.9577C39.6043 63.9795 40.1676 63.452 40.1897 62.7794C40.2118 62.1068 39.6847 61.5435 39.0117 61.521L31.0879 61.2597C30.6328 61.0724 30.1095 61.1775 29.7614 61.5256C29.4137 61.8741 29.3097 62.397 29.4978 62.8521L29.7587 70.774C29.774 71.4473 30.3319 71.9809 31.0049 71.9657C31.6775 71.9508 32.2115 71.3929 32.1962 70.7199C32.1962 70.7111 32.1962 70.7028 32.1955 70.6936L32.0446 66.1233C33.7212 67.9153 35.6373 69.4657 37.7385 70.7321C41.5452 73.0165 45.8158 74.2234 50.0883 74.2234C56.9133 74.2234 63.2058 71.4096 67.8043 66.3C71.878 61.7731 74.3102 55.6805 74.3102 50.0012C74.3102 49.3278 73.7648 48.7824 73.0914 48.7824Z" fill="#0F75BC"/>
</svg>

<svg xmlns="http://www.w3.org/2000/svg" width="100" height="100" viewBox="0 0 100 100"><g transform="translate(-825 -352)"><circle cx="50" cy="50" r="50" transform="translate(825 352)" fill="#ecf6fd"/><path d="M49.782,28.217a21.609,21.609,0,0,1,11.1,3.145,24.019,24.019,0,0,1,5.788,4.872l-5.727-.189a1.219,1.219,0,0,0-.08,2.436l7.924.262a1.219,1.219,0,0,0,1.59-1.593l-.261-7.922a1.219,1.219,0,0,0-2.437.055c0,.009,0,.017,0,.026l.151,4.57a26.585,26.585,0,0,0-5.694-4.608,24.052,24.052,0,0,0-12.35-3.491A23.572,23.572,0,0,0,32.066,33.7,25.16,25.16,0,0,0,25.56,50,1.219,1.219,0,1,0,28,50a22.659,22.659,0,0,1,5.88-14.667A21.164,21.164,0,0,1,49.782,28.217Z" transform="translate(825 352)" fill="#0f75bc"/><path d="M73.091,48.782A1.218,1.218,0,0,0,71.873,50a22.662,22.662,0,0,1-5.88,14.668,21.163,21.163,0,0,1-15.9,7.116,21.609,21.609,0,0,1-11.1-3.144A24.037,24.037,0,0,1,33.2,63.769l5.727.189a1.219,1.219,0,0,0,.08-2.437l-7.924-.261a1.219,1.219,0,0,0-1.59,1.592l.261,7.922A1.219,1.219,0,1,0,32.2,70.72c0-.009,0-.017,0-.026l-.151-4.57a26.6,26.6,0,0,0,5.694,4.609,24.048,24.048,0,0,0,12.35,3.491A23.571,23.571,0,0,0,67.8,66.3,25.162,25.162,0,0,0,74.31,50,1.218,1.218,0,0,0,73.091,48.782Z" transform="translate(825 352)" fill="#0f75bc"/></g></svg>
